assets/images/shortcut/mac.svg

<svg width="32" height="32" fill="none" xmlns="http://www.w3.org/2000/svg"><path d="M17.612 10.616v-.264l-.82.056c-.232.015-.406.064-.524.147a.406.406 0 00-.176.349c0 .145.058.261.174.346.116.086.271.129.466.129.124 0 .241-.019.348-.057a.873.873 0 00.28-.159.702.702 0 00.184-.241.671.671 0 00.068-.306zM16 0C7.072 0 0 7.072 0 16c0 8.929 7.072 16 16 16s16-7.071 16-16c0-8.928-7.071-16-16-16zm3.106 9.484c.076-.212.182-.394.32-.545.138-.151.304-.268.498-.349.194-.082.411-.123.649-.123.215 0 .409.032.582.096s.322.15.446.259c.124.109.223.235.295.38.072.145.116.298.13.46h-.642a.804.804 0 00-.087-.248.682.682 0 00-.164-.199.79.79 0 00-.241-.132.917.917 0 00-.312-.048.822.822 0 00-.656.316c-.079.1-.14.223-.183.366a1.638 1.638 0 00-.066.48c0 .182.022.345.066.489.043.144.105.265.185.365a.795.795 0 00.288.228.866.866 0 00.369.079c.22 0 .399-.052.537-.155a.723.723 0 00.27-.453h.643a1.248 1.248 0 01-.894 1.089c-.17.055-.356.084-.559.084-.241 0-.457-.04-.652-.12a1.387 1.387 0 01-.5-.343 1.54 1.54 0 01-.322-.544 2.14 2.14 0 01-.113-.721 2.1 2.1 0 01.113-.711zm-9.14-.974h.643v.571h.012a.942.942 0 01.373-.445c.083-.053.174-.093.273-.121a1.15 1.15 0 01.314-.042c.236 0 .436.056.598.169a.908.908 0 01.346.486h.016c.043-.102.1-.193.17-.273a1.092 1.092 0 01.542-.337c.109-.03.223-.045.343-.045.166 0 .316.026.452.079a.993.993 0 01.348.224c.096.096.17.214.222.351.052.137.078.29.078.458v2.299h-.671V9.747c0-.221-.057-.393-.171-.514-.113-.121-.276-.182-.487-.182a.739.739 0 00-.285.055.64.64 0 00-.222.153.698.698 0 00-.146.234.822.822 0 00-.053.298v2.093H12V9.691a.739.739 0 00-.045-.264.551.551 0 00-.333-.331.763.763 0 00-.269-.045.692.692 0 00-.662.46c-.034.093-.089.194-.089.304v2.069h-.636V8.51zm1.46 16.146c-2.949 0-4.799-2.05-4.799-5.32 0-3.27 1.85-5.327 4.799-5.327 2.949 0 4.792 2.056 4.792 5.327 0 3.27-1.843 5.32-4.792 5.32zm5.461-12.781a1.406 1.406 0 01-.795-.03 1.07 1.07 0 01-.36-.202.902.902 0 01-.234-.315.985.985 0 01-.084-.412.82.82 0 01.331-.694c.221-.167.54-.264.958-.291l.91-.052v-.26c0-.194-.062-.343-.185-.444-.123-.101-.298-.152-.524-.152a.941.941 0 00-.255.034.705.705 0 00-.209.097.556.556 0 00-.23.35h-.63a.899.899 0 01.11-.413c.069-.126.163-.236.283-.329.12-.093.259-.166.421-.217a1.75 1.75 0 01.528-.078c.205 0 .391.025.557.078.166.053.309.126.427.222a.983.983 0 01.273.348c.064.136.096.288.096.455v2.314h-.642v-.562h-.016a1.04 1.04 0 01-.181.247 1.2 1.2 0 01-.248.188 1.241 1.241 0 01-.301.118zm4.243 12.781c-2.249 0-3.778-1.178-3.885-3.028h1.464c.114 1.057 1.136 1.757 2.535 1.757 1.342 0 2.307-.7 2.307-1.657 0-.828-.586-1.329-1.942-1.671l-1.322-.328c-1.9-.471-2.764-1.336-2.764-2.757 0-1.75 1.528-2.964 3.707-2.964 2.128 0 3.613 1.221 3.67 2.978h-1.45c-.1-1.057-.964-1.707-2.25-1.707-1.278 0-2.164.657-2.164 1.607 0 .749.557 1.193 1.914 1.535l1.114.278c2.121.514 2.993 1.35 2.993 2.85.001 1.914-1.513 3.107-3.927 3.107zm-9.704-9.335c-2.021 0-3.285 1.55-3.285 4.013 0 2.457 1.264 4.007 3.285 4.007 2.014 0 3.285-1.55 3.285-4.007.001-2.463-1.271-4.013-3.285-4.013z" fill="#fff"/></svg>

<svg width="32" height="32" viewBox="0 0 32 32" fill="none" xmlns="http://www.w3.org/2000/svg">
  <path d="M17.612 10.616V10.352L16.792 10.408C16.56 10.423 16.386 10.472 16.268 10.555C16.151 10.639 16.092 10.755 16.092 10.904C16.092 11.049 16.15 11.165 16.266 11.25C16.382 11.336 16.537 11.379 16.732 11.379C16.856 11.379 16.973 11.36 17.08 11.322C17.187 11.284 17.281 11.231 17.36 11.163C17.439 11.096 17.5 11.016 17.544 10.922C17.59 10.831 17.612 10.728 17.612 10.616ZM16 0C7.072 0 0 7.072 0 16C0 24.929 7.072 32 16 32C24.928 32 32 24.929 32 16C32 7.072 24.929 0 16 0ZM19.106 9.484C19.182 9.272 19.288 9.09 19.426 8.939C19.564 8.788 19.73 8.671 19.924 8.59C20.118 8.508 20.335 8.467 20.573 8.467C20.788 8.467 20.982 8.499 21.155 8.563C21.328 8.627 21.477 8.713 21.601 8.822C21.725 8.931 21.824 9.057 21.896 9.202C21.968 9.347 22.012 9.5 22.026 9.662H21.384C21.368 9.573 21.339 9.49 21.297 9.414C21.255 9.338 21.201 9.271 21.133 9.215C21.064 9.159 20.984 9.115 20.892 9.083C20.8 9.05 20.697 9.035 20.58 9.035C20.444 9.035 20.319 9.063 20.209 9.118C20.098 9.173 20.003 9.251 19.924 9.351C19.845 9.451 19.784 9.574 19.741 9.717C19.697 9.861 19.675 10.021 19.675 10.197C19.675 10.379 19.697 10.542 19.741 10.686C19.784 10.83 19.846 10.951 19.926 11.051C20.005 11.15 20.102 11.227 20.214 11.279C20.326 11.331 20.449 11.358 20.583 11.358C20.803 11.358 20.982 11.306 21.12 11.203C21.259 11.1 21.348 10.949 21.39 10.75H22.033C22.014 10.926 21.966 11.086 21.887 11.231C21.808 11.376 21.707 11.499 21.582 11.602C21.456 11.705 21.309 11.784 21.139 11.839C20.969 11.894 20.783 11.923 20.58 11.923C20.339 11.923 20.123 11.883 19.928 11.803C19.734 11.724 19.566 11.609 19.428 11.46C19.289 11.311 19.182 11.13 19.106 10.916C19.03 10.702 18.993 10.463 18.993 10.195C18.993 9.934 19.03 9.696 19.106 9.484ZM9.966 8.51H10.609V9.081H10.621C10.66 8.986 10.712 8.901 10.775 8.827C10.838 8.752 10.911 8.689 10.994 8.636C11.077 8.583 11.168 8.543 11.267 8.515C11.366 8.487 11.471 8.473 11.581 8.473C11.817 8.473 12.017 8.529 12.179 8.642C12.342 8.755 12.457 8.917 12.525 9.128H12.541C12.584 9.026 12.641 8.935 12.711 8.855C12.781 8.775 12.862 8.705 12.953 8.648C13.044 8.591 13.144 8.548 13.253 8.518C13.362 8.488 13.476 8.473 13.596 8.473C13.762 8.473 13.912 8.499 14.048 8.552C14.184 8.605 14.299 8.679 14.396 8.776C14.492 8.872 14.566 8.99 14.618 9.127C14.67 9.264 14.696 9.417 14.696 9.585V11.884H14.025V9.747C14.025 9.526 13.968 9.354 13.854 9.233C13.741 9.112 13.578 9.051 13.367 9.051C13.264 9.051 13.169 9.07 13.082 9.106C12.996 9.142 12.922 9.193 12.86 9.259C12.798 9.324 12.749 9.402 12.714 9.493C12.679 9.584 12.661 9.683 12.661 9.791V11.884H12V9.691C12 9.594 11.985 9.506 11.955 9.427C11.925 9.348 11.883 9.281 11.826 9.225C11.77 9.169 11.702 9.126 11.622 9.096C11.542 9.066 11.452 9.051 11.353 9.051C11.25 9.051 11.154 9.07 11.065 9.109C10.977 9.148 10.902 9.201 10.838 9.269C10.775 9.338 10.725 9.418 10.691 9.511C10.657 9.604 10.602 9.705 10.602 9.815V11.884H9.966C9.966 11.883 9.966 8.51 9.966 8.51ZM11.426 24.656C8.477 24.656 6.627 22.606 6.627 19.336C6.627 16.066 8.477 14.009 11.426 14.009C14.375 14.009 16.218 16.065 16.218 19.336C16.218 22.606 14.375 24.656 11.426 24.656ZM16.887 11.875C16.778 11.903 16.667 11.917 16.553 11.917C16.385 11.917 16.231 11.893 16.092 11.845C15.952 11.797 15.832 11.73 15.732 11.643C15.632 11.556 15.553 11.451 15.498 11.328C15.442 11.205 15.414 11.067 15.414 10.916C15.414 10.62 15.524 10.389 15.745 10.222C15.966 10.055 16.285 9.958 16.703 9.931L17.613 9.879V9.619C17.613 9.425 17.551 9.276 17.428 9.175C17.305 9.074 17.13 9.023 16.904 9.023C16.813 9.023 16.727 9.035 16.649 9.057C16.57 9.08 16.5 9.112 16.44 9.154C16.38 9.196 16.33 9.247 16.291 9.307C16.252 9.366 16.225 9.432 16.21 9.504H15.58C15.584 9.355 15.621 9.217 15.69 9.091C15.759 8.965 15.853 8.855 15.973 8.762C16.093 8.669 16.232 8.596 16.394 8.545C16.556 8.494 16.732 8.467 16.922 8.467C17.127 8.467 17.313 8.492 17.479 8.545C17.645 8.598 17.788 8.671 17.906 8.767C18.024 8.863 18.115 8.979 18.179 9.115C18.243 9.251 18.275 9.403 18.275 9.57V11.884H17.633V11.322H17.617C17.569 11.413 17.509 11.495 17.436 11.569C17.362 11.642 17.279 11.705 17.188 11.757C17.096 11.808 16.995 11.848 16.887 11.875ZM21.13 24.656C18.881 24.656 17.352 23.478 17.245 21.628H18.709C18.823 22.685 19.845 23.385 21.244 23.385C22.586 23.385 23.551 22.685 23.551 21.728C23.551 20.9 22.965 20.399 21.609 20.057L20.287 19.729C18.387 19.258 17.523 18.393 17.523 16.972C17.523 15.222 19.051 14.008 21.23 14.008C23.358 14.008 24.843 15.229 24.9 16.986H23.45C23.35 15.929 22.486 15.279 21.2 15.279C19.922 15.279 19.036 15.936 19.036 16.886C19.036 17.635 19.593 18.079 20.95 18.421L22.064 18.699C24.185 19.213 25.057 20.049 25.057 21.549C25.058 23.463 23.544 24.656 21.13 24.656ZM11.426 15.321C9.405 15.321 8.141 16.871 8.141 19.334C8.141 21.791 9.405 23.341 11.426 23.341C13.44 23.341 14.711 21.791 14.711 19.334C14.712 16.871 13.44 15.321 11.426 15.321Z" fill="white"/>
</svg>
